X:1
T:7. Sarabande
T:(alte spanische Tanzform)
T:Georg Friedrich Händel
%%score { ( 1 3 ) | 2 }
L:1/8
M:3/2
K:F
V:1 treble nm="Piano"
V:3 treble 
V:2 bass 
V:1
"^Grave" !5![A,DF]4 [A,DF]4 z2 G2 | !4![A,^CE]4 [A,CE]4 z4 | !5![CFA]4 [CFA]4 z2 !5!B2 | %3
 !4![CEG]4 [CEG]4 z2"^cresc." [^FA]2 | !5![DGB]4 [DGB]4 z2 !5!c2 | !4![DFA]4 [DFA]4 z2 (!2!A2 | %6
 !5![Ad]4) [Gd]4 z2 e2 | !4![EA^c]4 [EAc]4 z4 | !5![A,DF]4 [A,DF]4 z2 !5!G2 | %9
 !4![A,^CE]4 [A,CE]4 z4 | !5![CFA]4 [CFA]4 z2 !5!B2 | !4![CEG]4 [CEG]4 z2 !4![^FA]2 | %12
 !5![DGB]4 [CGB]4 z2 c2 | !4![CFA]6!<(! (!2![F-A]2 F2 z2 | !3!d2 e2!<)! x4) !5![^ce]2 d2 | %15
 !5![FAd]4 [FAd]4 z4 || %16
V:2
!mp! D,4 D,,4 z4 | !3!A,,6 B,,2 A,,2 G,,2 | F,,4 F,4 z4 | !3!C,6 !2!C,2 B,,2 A,,2 | G,,4 G,4 G,,4 | %5
 D,4 D,4 z2 !4!C,2 | B,,4 B,4 z4 |!f! [A,,A,]6 G,2!>(! F,2 E,2!>)! |!mp! !1!D,4 D,,4 z4 | %9
 !3!A,,6 B,,2 A,,2 G,,2 | F,,4 F,4 z4 | !3!C,6!<(! !2!C,2 B,,2 A,,2!<)! | %12
 G,,2 G,2 !2!E,2 G,2 C,2 E,2 | F,6 D,2 B,4 | !2!G,4 A,4!>(! A,,4 | !1!D,4!>)! D,,4 z4 || %16
V:3
 x12 | x12 | x12 | x12 | x12 | x12 | x12 | x12 | x12 | x12 | x12 | x12 | x12 | x8 !5!d2 !2!^c x | %14
 B4 [Adf]4 G4 | x12 || %16

